X:190
T:The Fairies Hornpipe
M:4/4
L:1/8
Q:120
C:Traditional
K:G
(3DEF | GFGA BdcB | AGAB G2 Bc | dgfg edcB | cedB A2 Bc | dggf g2 fe | d
edc B2 AG | AB (3cBA dcAF | G2 GF G2 || Bc |: dggf g2 fe | dedc B2 AG |1
AB (3cBA edcB | Addc d2 Bc :|2 AB (3cBA dcAF | G2 GF G2 ||
